svg/UnitedNations-Flags/flag-iq.svg

<svg enable-background="new 0 0 900 600" height="256" viewBox="0 0 900 600" width="256" xmlns="http://www.w3.org/2000/svg"><path fill="#ce1126" d="m0 0h900v187.27h-900z"/><path fill="#fff" d="m0 185.68h900v219.1h-900z"/><path d="m0 404.77h900v195.23h-900z"/><g transform="matrix(3.13126 0 0 3.4051-158.74-207.31)" fill="#009e60"><path d="m138.09 170.8l-1.652-1.667 1.667-1.652 1.667-1.652 1.652 1.667 1.652 1.667-1.667 1.652-1.667 1.652-1.652-1.667m-11.34-.837c-.594-.217-1.558-.932-2.19-1.623-1.191-1.303-1.462-1.911-.662-1.483 1.193.639 3.556 1.054 4.397.774 3.102-1.036 3.807-5.177 1.33-7.804-.486-.515-.884-1.114-.884-1.331 0-.217.517-.623 1.148-.902.884-.391 1.316-.817 1.882-1.856.574-1.055.81-1.285 1.086-1.056.394.327 1.725 3.503 1.725 4.117 0 .324.481.395 2.658.395h2.658l-.415-.996c-.228-.547-.604-1.284-.835-1.637-.374-.572-.376-.673-.017-.929.221-.158.957-.676 1.636-1.151.678-.475 1.312-1.072 1.407-1.327.235-.632 1.705-2.455 1.978-2.455.121 0 .221 1.911.221 4.247v4.247h16.591 16.59v-6.084-6.084l-.923-.571-.923-.571-.935.713-.935.713v4.349 4.348h-13.936c-7.666 0-13.937-.048-13.937-.106 0-.093 6.935-9.459 7.783-10.512.176-.219.612-.816.968-1.327.356-.511.719-.989.805-1.062.088-.073.447-.551.801-1.062.353-.511.765-1.069.916-1.239.151-.171 2.663-3.538 5.583-7.483 2.92-3.945 5.396-7.18 5.504-7.189.107-.009.259.313.338.714.438 2.222.774 3.466 1.121 4.15.444.875.184 1.202-.989 1.238-.555.017-1.834 1.587-7.831 9.615-3.942 5.277-7.207 9.689-7.256 9.805-.049.116 3.505.211 7.897.211h7.986l.004-2.854c.002-1.569.092-2.977.199-3.128.501-.706 5.781-4.395 6.149-4.297.229.061 1.641 1.043 3.138 2.182l2.721 2.072v8.853 8.853h-23.06-23.06l-.463 1.712c-.556 2.052-1.465 3.532-2.686 4.368-1.151.788-3.756 1.01-5.293.443m57.47-20.305c0-9.637.087-13.847.288-13.972.158-.098.845.406 1.526 1.12.681.714 1.895 1.861 2.699 2.548 1.268 1.086 1.4 1.286 1.01 1.524-1.307.794-1.274.544-1.274 9.705v8.608h2.541c2.256 0 2.673-.077 3.716-.689 1.295-.759 1.381-.659.74.856-.24.565-.508 1.685-.598 2.488l-.162 1.46-5.243.072-5.242.072v-13.792"/><path d="m211.67 159.85c.139-3.881.54-5.198 1.964-6.448 1.096-.962 2.664-1.418 4.479-1.301l1.359.088.082-1.588c.103-2.01-.079-2.73-.748-2.943-.803-.255-.639-1.089.334-1.696.476-.297 1.642-1.326 2.59-2.287.948-.961 1.818-1.747 1.932-1.747.114 0 .208 3.837.208 8.527v8.528h1.865 1.865v-8.775c0-7.622-.055-8.83-.419-9.194-.23-.23-.53-.419-.666-.419-.598 0-.175-1.067.618-1.562.477-.297 1.636-1.32 2.578-2.274.941-.954 1.811-1.673 1.932-1.598.121.075.22 5.465.22 11.979v11.843h1.865 1.865v-12.13-12.13l-.666-.579c-.366-.318-.666-.724-.666-.901 0-.177.829-.991 1.842-1.81 1.013-.819 2.1-1.851 2.416-2.295 1.36-1.911 1.338-2.196 1.338 16.647v17.454h-14.155-14.155l.123-3.396m7.936-2.598v-1.732h-1.045c-1.403 0-2.685 1.218-2.685 2.552v.912h1.865 1.865v-1.732m23.18-7.84c0-9.674.087-13.901.289-14.03.159-.098.849.408 1.532 1.125.684.717 1.902 1.868 2.708 2.558 1.273 1.09 1.406 1.291 1.013 1.53-1.312.797-1.279.547-1.279 9.743v8.642h2.603c2.361 0 2.697-.064 3.618-.69.559-.379 1.081-.624 1.161-.544.08.08-.064.66-.321 1.289-.257.629-.542 1.803-.633 2.609l-.166 1.466-5.263.072-5.263.072v-13.846h.0001m-20.974-14.498c-.47-.172-1.01-.477-1.199-.677-.29-.306-.146-.336.908-.185 1.894.27 3.055-.051 4.111-1.14l.929-.956 1.291.458c.71.252 1.452.396 1.65.32.512-.197 1.44-1.668 1.347-2.136-.113-.571.411-.484.735.121.636 1.188.105 2.695-1.11 3.154-.595.225-1.17.231-2.134.025-1.184-.254-1.378-.227-1.897.259-1.164 1.09-2.932 1.379-4.631.757m3.226-4.394c-.642-.438-1.997-2.683-2.048-3.397-.045-.612.064-.799.499-.862.762-.109 1.114.398 1.7 2.449.479 1.674.435 2.209-.151 1.81"/></g></svg>

<?xml version="1.0" encoding="UTF-8" standalone="no"?>
<!-- Generator: Adobe Illustrator 13.0.0, SVG Export Plug-In . SVG Version: 6.00 Build 14948)  --><svg enable-background="new 0 0 900 600" height="256" id="Flag_of_Iraq" inkscape:output_extension="org.inkscape.output.svg.inkscape" inkscape:version="0.46" sodipodi:docbase="C:\Documents and Settings\Joshua.JOSHPC\Desktop" sodipodi:docname="Flag_of_Iraq.svg" sodipodi:version="0.32" space="preserve" version="1.0" viewBox="0 0 900 600" width="256" x="0px" xmlns="http://www.w3.org/2000/svg" xmlns:cc="http://creativecommons.org/ns#" xmlns:dc="http://purl.org/dc/elements/1.1/" xmlns:inkscape="http://www.inkscape.org/namespaces/inkscape" xmlns:rdf="http://www.w3.org/1999/02/22-rdf-syntax-ns#" xmlns:sodipodi="http://sodipodi.sourceforge.net/DTD/sodipodi-0.dtd" xmlns:svg="http://www.w3.org/2000/svg" y="0px">
  <metadata>
    <rdf:RDF xmlns:cc="http://web.resource.org/cc/" xmlns:dc="http://purl.org/dc/elements/1.1/" xmlns:rdf="http://www.w3.org/1999/02/22-rdf-syntax-ns#">
      <cc:Work rdf:about="">
        <dc:title></dc:title>
        <dc:description></dc:description>
        <dc:subject>
          <rdf:Bag>
            <rdf:li>unsorted</rdf:li>
          </rdf:Bag>
        </dc:subject>
        <dc:publisher>
          <cc:Agent rdf:about="http://www.openclipart.org/">
            <dc:title>Open Clip Art Library, Source: Wikimedia Commons, Source: Wikimedia Commons, Source: Wikimedia Commons, Source: Wikimedia Commons</dc:title>
          </cc:Agent>
        </dc:publisher>
        <dc:creator>
          <cc:Agent>
            <dc:title></dc:title>
          </cc:Agent>
        </dc:creator>
        <dc:rights>
          <cc:Agent>
            <dc:title></dc:title>
          </cc:Agent>
        </dc:rights>
        <dc:date></dc:date>
        <dc:format>image/svg+xml</dc:format>
        <dc:type rdf:resource="http://purl.org/dc/dcmitype/StillImage"/>
        <cc:license rdf:resource="http://en.wikipedia.org/wiki/Public_domain"/>
        <dc:language>en</dc:language>
      </cc:Work>
    </rdf:RDF>
  </metadata>
  <defs id="defs4474">
    <inkscape:perspective id="perspective4478" inkscape:persp3d-origin="450 : 200 : 1" inkscape:vp_x="0 : 300 : 1" inkscape:vp_y="0 : 1000 : 0" inkscape:vp_z="900 : 300 : 1" sodipodi:type="inkscape:persp3d"/>
  </defs>
  <sodipodi:namedview bordercolor="#666666" borderopacity="1.0" gridtolerance="10.0" guidetolerance="10.0" id="base" inkscape:current-layer="Flag_of_Iraq" inkscape:cx="380.70363" inkscape:cy="385.62608" inkscape:pageopacity="0.0" inkscape:pageshadow="2" inkscape:window-height="674" inkscape:window-width="744" inkscape:window-x="27" inkscape:window-y="203" inkscape:zoom="0.44429876" objecttolerance="10.0" pagecolor="#ffffff" showgrid="false"></sodipodi:namedview>
  <rect height="187.26801" id="rect3" style="fill:#ce1126" width="900" x="0" y="0"/>
  <rect height="219.09801" id="rect5" style="fill:#ffffff" width="900" x="0" y="185.67599"/>
  <rect height="195.226" id="rect7" width="900" x="0" y="404.77399"/>
  <g id="g9" transform="matrix(1.5656306,0,0,1.702551,-158.7378,-207.31444)">
    <g id="g4466">
      <g id="g4468" transform="scale(2,2)">
        <path d="M 138.086,170.796 L 136.434,169.129 L 138.101,167.477 L 139.768,165.825 L 141.42,167.492 L 143.072,169.159 L 141.405,170.811 L 139.738,172.463 L 138.086,170.796 z M 126.746,169.959 C 126.152,169.742 125.188,169.027 124.556,168.336 C 123.365,167.033 123.094,166.425 123.894,166.853 C 125.087,167.492 127.45,167.907 128.291,167.627 C 131.393,166.591 132.098,162.45 129.621,159.823 C 129.135,159.308 128.737,158.709 128.737,158.492 C 128.737,158.275 129.254,157.869 129.885,157.59 C 130.769,157.199 131.201,156.773 131.767,155.734 C 132.341,154.679 132.577,154.449 132.853,154.678 C 133.247,155.005 134.578,158.181 134.578,158.795 C 134.578,159.119 135.059,159.19 137.236,159.19 L 139.894,159.19 L 139.479,158.194 C 139.251,157.647 138.875,156.91 138.644,156.557 C 138.27,155.985 138.268,155.884 138.627,155.628 C 138.848,155.47 139.584,154.952 140.263,154.477 C 140.941,154.002 141.575,153.405 141.67,153.15 C 141.905,152.518 143.375,150.695 143.648,150.695 C 143.769,150.695 143.869,152.606 143.869,154.942 L 143.869,159.189 L 160.46,159.189 L 177.05,159.189 L 177.05,153.105 L 177.05,147.021 L 176.127,146.45 L 175.204,145.879 L 174.269,146.592 L 173.334,147.305 L 173.334,151.654 L 173.334,156.002 L 159.398,156.002 C 151.732,156.002 145.461,155.954 145.461,155.896 C 145.461,155.803 152.396,146.437 153.244,145.384 C 153.42,145.165 153.856,144.568 154.212,144.057 C 154.568,143.546 154.931,143.068 155.017,142.995 C 155.105,142.922 155.464,142.444 155.818,141.933 C 156.171,141.422 156.583,140.864 156.734,140.694 C 156.885,140.523 159.397,137.156 162.317,133.211 C 165.237,129.266 167.713,126.031 167.821,126.022 C 167.928,126.013 168.08,126.335 168.159,126.736 C 168.597,128.958 168.933,130.202 169.28,130.886 C 169.724,131.761 169.464,132.088 168.291,132.124 C 167.736,132.141 166.457,133.711 160.46,141.739 C 156.518,147.016 153.253,151.428 153.204,151.544 C 153.155,151.66 156.709,151.755 161.101,151.755 L 169.087,151.755 L 169.091,148.901 C 169.093,147.332 169.183,145.924 169.29,145.773 C 169.791,145.067 175.071,141.378 175.439,141.476 C 175.668,141.537 177.08,142.519 178.577,143.658 L 181.298,145.73 L 181.298,154.583 L 181.298,163.436 L 158.243,163.436 L 135.188,163.436 L 134.725,165.148 C 134.169,167.2 133.26,168.68 132.039,169.516 C 130.888,170.304 128.283,170.522 126.746,169.959 z M 184.217,149.654 C 184.217,140.017 184.304,135.807 184.505,135.682 C 184.663,135.584 185.35,136.088 186.031,136.802 C 186.712,137.516 187.926,138.663 188.73,139.35 C 189.998,140.436 190.13,140.636 189.739,140.874 C 188.432,141.668 188.465,141.418 188.465,150.579 L 188.465,159.187 L 191.006,159.187 C 193.262,159.187 193.679,159.11 194.722,158.498 C 196.017,157.739 196.103,157.839 195.462,159.354 C 195.222,159.919 194.954,161.039 194.864,161.842 L 194.702,163.302 L 189.459,163.374 L 184.217,163.446 L 184.217,149.654 L 184.217,149.654 z" id="path4470" sodipodi:nodetypes="ccccccccccssssssssscccssssscccccccccccccsssssscsssscscccsscccccccsccsssscccssccccc" style="fill:#009e60"/>
        <path d="M 211.666,159.855 C 211.805,155.974 212.206,154.657 213.63,153.407 C 214.726,152.445 216.294,151.989 218.109,152.106 L 219.468,152.194 L 219.55,150.606 C 219.653,148.594 219.471,147.876 218.802,147.663 C 217.999,147.408 218.163,146.574 219.136,145.967 C 219.612,145.67 220.778,144.641 221.726,143.68 C 222.674,142.719 223.544,141.933 223.658,141.933 C 223.772,141.933 223.866,145.77 223.866,150.46 L 223.866,158.988 L 225.731,158.988 L 227.596,158.988 L 227.596,150.213 C 227.596,142.591 227.541,141.383 227.177,141.019 C 226.947,140.789 226.647,140.6 226.511,140.6 C 225.913,140.6 226.336,139.533 227.129,139.038 C 227.606,138.741 228.765,137.718 229.707,136.764 C 230.648,135.81 231.518,135.091 231.639,135.166 C 231.76,135.241 231.859,140.631 231.859,147.145 L 231.859,158.988 L 233.724,158.988 L 235.589,158.988 L 235.589,146.861 L 235.589,134.735 L 234.923,134.156 C 234.557,133.838 234.257,133.432 234.257,133.255 C 234.257,133.078 235.086,132.264 236.099,131.445 C 237.112,130.626 238.199,129.594 238.515,129.15 C 239.875,127.239 239.853,126.954 239.853,145.797 L 239.853,163.251 L 225.698,163.251 L 211.543,163.251 L 211.666,159.855 z M 219.602,157.257 L 219.602,155.525 L 218.557,155.525 C 217.154,155.525 215.872,156.743 215.872,158.077 L 215.872,158.989 L 217.737,158.989 L 219.602,158.989 L 219.602,157.257 L 219.602,157.257 z M 242.786,149.417 C 242.786,139.743 242.873,135.516 243.075,135.391 C 243.234,135.293 243.924,135.799 244.607,136.516 C 245.291,137.233 246.509,138.384 247.315,139.074 C 248.588,140.164 248.721,140.365 248.328,140.604 C 247.016,141.401 247.049,141.151 247.049,150.347 L 247.049,158.989 L 249.652,158.989 C 252.013,158.989 252.349,158.925 253.27,158.299 C 253.829,157.92 254.351,157.675 254.431,157.755 C 254.511,157.835 254.367,158.415 254.11,159.044 C 253.853,159.673 253.568,160.847 253.477,161.653 L 253.311,163.119 L 248.048,163.191 L 242.785,163.263 L 242.785,149.417 L 242.786,149.417 z M 221.812,134.919 C 221.342,134.747 220.802,134.442 220.613,134.242 C 220.323,133.936 220.467,133.906 221.521,134.057 C 223.415,134.327 224.576,134.006 225.632,132.917 L 226.561,131.961 L 227.852,132.419 C 228.562,132.671 229.304,132.815 229.502,132.739 C 230.014,132.542 230.942,131.071 230.849,130.603 C 230.736,130.032 231.26,130.119 231.584,130.724 C 232.22,131.912 231.689,133.419 230.474,133.878 C 229.879,134.103 229.304,134.109 228.34,133.903 C 227.156,133.649 226.962,133.676 226.443,134.162 C 225.279,135.252 223.511,135.541 221.812,134.919 z M 225.038,130.525 C 224.396,130.087 223.041,127.842 222.99,127.128 C 222.945,126.516 223.054,126.329 223.489,126.266 C 224.251,126.157 224.603,126.664 225.189,128.715 C 225.668,130.389 225.624,130.924 225.038,130.525 z" id="path4472" style="fill:#009e60"/>
      </g>
    </g>
  </g>
</svg>
